usr/share/icons/biglinux-icons-material/16/actions/document-revert.svg

<svg version="1.1" viewBox="0 0 16 16" xmlns="http://www.w3.org/2000/svg">
 <defs>
  <style id="current-color-scheme" type="text/css">.ColorScheme-Text {
        color:#363636;
      }</style>
 </defs>
 <path d="m12 1c1.108 0 2 0.892 2 2v7l-5 5h-1.7617a4.5 4.5 0 0 0 0.49805-1h0.26367v-5h5v-6c0-0.554-0.446-1-1-1h-8c-0.554 0-1 0.446-1 1v5.0312a4.5 4.5 0 0 0-1 0.23242v-5.2637c0-1.108 0.892-2 2-2zm0.58594 9h-3.5859v3.5859z" style="fill:currentColor" class="ColorScheme-Text"/>
 <path d="m3.5 9a3.5 3.5 0 0 1 3.5 3.5 3.5 3.5 0 0 1-3.5 3.5 3.5 3.5 0 0 1-3.5-3.5 3.5 3.5 0 0 1 3.5-3.5zm0.5 1.5-2 2 2 2z" style="fill:currentColor" class="ColorScheme-Text"/>
</svg>

<svg xmlns="http://www.w3.org/2000/svg" viewBox="0 0 16 16"><defs><style id="current-color-scheme" type="text/css">.ColorScheme-Text{color:#dedede}</style></defs><path d="M12 1c1.108 0 2 .892 2 2v7l-5 5H7.238a4.5 4.5 0 0 0 .498-1H8V9h5V3c0-.554-.446-1-1-1H4c-.554 0-1 .446-1 1v5.031a4.5 4.5 0 0 0-1 .233V3c0-1.108.892-2 2-2zm.586 9H9v3.586z" class="ColorScheme-Text" style="fill:currentColor"/><path d="M3.5 9A3.5 3.5 0 0 1 7 12.5 3.5 3.5 0 0 1 3.5 16 3.5 3.5 0 0 1 0 12.5 3.5 3.5 0 0 1 3.5 9zm.5 1.5-2 2 2 2z" class="ColorScheme-Text" style="fill:currentColor"/></svg>
